assets/img/braze_icons/search-sm.svg

<svg fill="none" height="24" viewBox="0 0 24 24" width="24" xmlns="http://www.w3.org/2000/svg"><path clip-rule="evenodd" d="m10 2c-4.41828 0-8 3.58172-8 8 0 4.4183 3.58172 8 8 8 1.8487 0 3.551-.6271 4.9056-1.6801l5.3873 5.3872c.3905.3905 1.0237.3905 1.4142 0s.3905-1.0237 0-1.4142l-5.3872-5.3873c1.053-1.3546 1.6801-3.0569 1.6801-4.9056 0-4.41828-3.5817-8-8-8zm-6 8c0-3.31371 2.68629-6 6-6 3.3137 0 6 2.68629 6 6 0 3.3137-2.6863 6-6 6-3.31371 0-6-2.6863-6-6z" fill="#801ed7" fill-rule="evenodd"/></svg>

<svg width="24" height="24" viewBox="0 0 24 24" fill="none" xmlns="http://www.w3.org/2000/svg">
<path fill-rule="evenodd" clip-rule="evenodd" d="M10 2C5.58172 2 2 5.58172 2 10C2 14.4183 5.58172 18 10 18C11.8487 18 13.551 17.3729 14.9056 16.3199L20.2929 21.7071C20.6834 22.0976 21.3166 22.0976 21.7071 21.7071C22.0976 21.3166 22.0976 20.6834 21.7071 20.2929L16.3199 14.9056C17.3729 13.551 18 11.8487 18 10C18 5.58172 14.4183 2 10 2ZM4 10C4 6.68629 6.68629 4 10 4C13.3137 4 16 6.68629 16 10C16 13.3137 13.3137 16 10 16C6.68629 16 4 13.3137 4 10Z" fill="#801ED7"/>
</svg>
